X:205
T:Stolen Purse, The
R:jig
H:Similar to "The Lark on the Strand", #106
H:Similar to #266
D:Kevin Burke: Close Up
Z:id:hn-jig-205
M:6/8
K:G
dcA AGA|BGF G2B|dBA ABd|ege edB|
ABA AGA|BGE G2A|GED G2A|Bdd edB|
~A3 AGA|BGF G2B|dBA ABd|ege edB|
ABA AGA|BGE G2A|GED G2A|Bdd edB||
|:def g2b|agf g2e|def g2a|bee edB|
def g2b|agf g2a|bgg agf|e2d efg:|

